X:33
M:2/4
L:1/8
K:G
af | g2 bg |
e2 ge | d2 ec | B2A2 | G4::d3d | dd d2 | B3B | BB B2 | AB c2 | Bc d2 |
cABG | A2D2::f3f | ff f2 | g3g | gg g2 | e2e2 | d2 ec | B2A2 | G4 :|

